Misc/spline.svg

<svg xmlns="http://www.w3.org/2000/svg" viewBox="0 0 698 474" preserveAspectRatio="none" width="698" height="474">
 <path d="M0,0H698V474H0Z" style="fill: white;"></path>
 <g>
  <g transform="translate(70,47)">
   <path d="M0,0H558V379H0Z" style="fill: white; stroke: black; stroke-width: 1;"></path>
   <svg x="0" y="0" overflow="hidden" width="558" height="379" viewBox="0 0 558 379">
    <g>
     <path d="M3,159l6,4l5,7l6,8l5,7l6,4h5l6,-4l6,-7l5,-8l6,-7l5,-4l6,1l6,7l5,13l6,19l5,21l6,21l5,17l6,11l6,1l5,-9l6,-21l5,-29l6,-35l6,-37l5,-33l6,-26l5,-13l6,1l5,16l6,31l6,42l5,48l6,49l5,43l6,32l5,16l6,-3l6,-21l5,-38l6,-50l5,-57l6,-57l6,-49l5,-35l6,-17l5,4l6,23l5,42l6,54l6,60l5,58l6,50l5,36l6,17l5,-4l6,-24l6,-41l5,-52l6,-58l5,-55l6,-46l6,-33l5,-15l6,5l5,22l6,36l5,46l6,49l6,47l5,38l6,26l5,11l6,-4l6,-19l5,-29l6,-35l5,-36l6,-34l5,-26l6,-16l6,-6l5,5l6,13l5,19l6,22l5,20l6,17l6,11l5,5l6,-1l5,-5l6,-8l6,-8l5,-6l6,-3l5,1l6,6l5,7" style="fill: none; stroke: red; stroke-width: 2;"></path>
    </g>
    <g>
     <path d="M20.29,180.59C21.22,181.69,23.33,183.94,25.36,185.65S28.41,188.49,30.44,189.18S33.48,189.86,35.51,189.12S38.55,187.5,40.58,185.48S43.63,181.91,45.65,179.06S48.7,174.31,50.73,171.24S53.77,166.31,55.8,163.71S58.84,159.7,60.87,158.26S63.92,156.23,65.95,156.52S68.99,157.33,71.02,159.7S74.06,163.87,76.09,168.39S79.13,175.93,81.16,182.27S84.21,192.57,86.24,200.09S89.28,212.05,91.31,219.86S94.35,232.04,96.38,239.16S99.43,250,101.45,255.43S104.5,263.43,106.53,266.35S109.57,270.23,111.6,270.05S114.64,269,116.67,265.49S119.72,259.24,121.75,252.5S124.79,241.33,126.82,231.82S129.86,216.48,131.89,204.91S134.93,186.59,136.96,173.95S140.01,154.22,142.04,141.72S145.08,122.49,147.11,111.49S150.15,94.88,152.18,86.71S155.23,74.82,157.25,70.68S160.3,65.29,162.33,65.98S165.37,68.32,167.4,74.16S170.44,84.55,172.47,95.21S175.52,112.92,177.55,127.43S180.59,150.8,182.62,167.75S185.66,194.47,187.69,212.15S190.73,239.53,192.76,256.14S195.81,281.38,197.84,295.17S200.88,315.63,202.91,325.09S205.95,338.5,207.98,342.49S211.03,347.17,213.05,345.04S216.1,340.1,218.13,331.84S221.17,317.44,223.2,303.73S226.24,281.16,228.27,263.34S231.32,234.81,233.35,214.65S236.39,183.01,238.42,162.51S241.46,130.93,243.49,112.17S246.53,83.8,248.56,68.68S251.61,46.43,253.64,36.55S256.68,22.8,258.71,19.27S261.75,15.61,263.78,18.9S266.83,25.89,268.85,35.73S271.9,52.69,273.93,68.07S276.97,93.26,279,112.63S282.04,143.5,284.07,164.92S287.12,198.4,289.15,219.73S292.19,252.48,294.22,271.58S297.26,300.31,299.29,315.24S302.33,337,304.36,346.25S307.41,358.81,309.44,361.47S312.48,363.63,314.51,359.51S317.55,351.24,319.58,340.86S322.63,323.13,324.65,307.61S327.7,282.29,329.73,263.24S332.77,232.95,334.8,212.34S337.84,180.22,339.87,160.16S342.92,129.51,344.95,112.04S347.99,85.97,350.02,72.78S353.06,53.8,355.09,46.08S358.13,35.85,360.16,34.23S363.21,33.51,365.24,37.98S368.28,46.62,370.31,56.55S373.35,73.41,375.38,87.6S378.43,110.66,380.45,127.51S383.5,154.17,385.53,171.88S388.57,199.29,390.6,216.04S393.64,241.44,395.67,255.59S398.72,276.54,400.75,286.79S403.79,301.34,405.82,306.83S408.86,313.8,410.89,314.22S413.93,313.33,415.96,308.96S419.01,300.79,421.04,292.37S424.08,278.21,426.11,266.85S429.15,248.51,431.18,235.57S434.23,215.22,436.25,202.15S439.3,182.05,441.33,170.23S444.37,152.48,446.4,143.04S449.44,129.3,451.47,123.01S454.52,114.34,456.55,111.56S459.59,108.41,461.62,109.11S464.66,111.31,466.69,115.05S469.73,121.8,471.76,127.83S474.81,137.84,476.84,145.21S479.88,156.97,481.91,164.67S484.95,176.62,486.98,183.72S490.03,194.44,492.05,200.18S495.1,208.55,497.13,212.42S500.17,217.72,502.2,219.53S505.24,221.58,507.27,221.45S510.32,220.56,512.35,218.89S515.39,215.73,517.42,213.09S521.56,207.22,522.49,205.68" style="fill: none; stroke: #ff0000; stroke-width: 3;"></path>
    </g>
    <g>
     <path d="M20.29,177.64C20.96,179.42,23.33,183.55,25.36,185.65S28.41,188.02,30.44,188.18S33.48,187.74,35.51,186.45S38.55,183.96,40.58,181.71S43.63,177.91,45.65,175.2S48.7,170.84,50.73,168.17S53.77,163.98,55.8,161.85S58.84,158.59,60.87,157.48S63.92,155.88,65.95,156.3S68.99,157.12,71.02,159.56S74.06,163.72,76.09,168.49S79.13,176.65,81.16,183.38S84.21,194.37,86.24,202.18S89.28,214.52,91.31,222.42S94.35,234.65,96.38,241.66S99.43,252.31,101.45,257.44S104.5,265.04,106.53,267.34S109.57,270.09,111.6,268.95S114.64,266.07,116.67,261.65S119.72,253.96,121.75,246.84S124.79,235.26,126.82,226.06S129.86,211.51,131.89,200.83S134.93,184.2,136.96,172.67S140.01,154.75,142.04,143.16S145.08,125.25,147.11,114.7S150.15,98.67,152.18,90.42S155.23,78.16,157.25,73.48S160.3,66.87,162.33,67.01S165.37,68.32,167.4,74.15S170.44,85.09,172.47,96.19S175.52,114.81,177.55,129.61S180.59,153.38,182.62,170.2S185.66,196.57,187.69,213.73S190.73,240.11,192.76,255.97S195.81,279.82,197.84,293S200.88,312.51,202.91,321.87S205.95,335.38,207.98,339.82S211.03,345.65,213.05,344.07S216.1,340.1,218.13,331.89S221.17,317.01,223.2,302.99S226.24,279.75,228.27,261.78S231.32,233.1,233.35,213.14S236.39,181.98,238.42,161.99S241.46,131.4,243.49,113.17S246.53,85.74,248.56,70.82S251.61,48.73,253.64,38.58S256.68,24,258.71,20.07S261.75,15.6,263.78,18.91S266.83,26.47,268.85,36.63S271.9,54.27,273.93,69.74S276.97,94.91,279,113.98S282.04,144.15,284.07,165.12S287.12,197.79,289.15,218.82S292.19,251.14,294.22,270.25S297.26,299.2,299.29,314.39S302.33,336.88,304.36,346.2S307.41,358.6,309.44,360.96S312.48,362.3,314.51,357.97S317.55,349.48,319.58,339.31S322.63,322.25,324.65,307.1S327.7,282.44,329.73,263.57S332.77,233.41,334.8,212.75S337.84,180.46,339.87,160.3S342.92,129.34,344.95,111.93S347.99,86.13,350.02,73.23S353.06,54.97,355.09,47.42S358.13,37.29,360.16,35.46S363.21,34.06,365.24,38.27S368.28,46.59,370.31,56.53S373.35,73.66,375.38,87.95S378.43,111.18,380.45,127.99S383.5,154.52,385.53,172.02S388.57,198.98,390.6,215.52S393.64,240.58,395.67,254.73S398.72,275.86,400.75,286.28S403.79,301.32,405.82,306.83S408.86,313.53,410.89,313.8S413.93,312.56,415.96,308.18S419.01,300.16,421.04,291.92S424.08,278.17,426.11,266.95S429.15,248.77,431.18,235.84S434.23,215.43,436.25,202.3S439.3,182,441.33,170.2S444.37,152.6,446.4,143.29S449.44,129.91,451.47,123.66S454.52,114.95,456.55,112.04S459.59,108.51,461.62,109.12S464.66,111.32,466.69,115.1S469.73,121.98,471.76,128.03S474.81,138.05,476.84,145.36S479.88,156.94,481.91,164.54S484.95,176.27,486.98,183.35S490.03,194.1,492.05,199.92S495.1,208.53,497.13,212.41S500.17,217.61,502.2,219.35S505.24,221.23,507.27,221.11S510.32,220.3,512.35,218.71S515.39,215.76,517.42,213.2S521.57,207.42,522.49,205.9" style="fill: none; stroke: #00ff00; stroke-width: 3;"></path>
     <path d="M19,186a6,6,0,1,0,12,0a6,6,0,1,0,-12,0zM69,167a6,6,0,1,0,12,0a6,6,0,1,0,-12,0zM103,269a6,6,0,1,0,12,0a6,6,0,1,0,-12,0zM133,160a6,6,0,1,0,12,0a6,6,0,1,0,-12,0zM161,72a6,6,0,1,0,12,0a6,6,0,1,0,-12,0zM186,253a6,6,0,1,0,12,0a6,6,0,1,0,-12,0zM211,337a6,6,0,1,0,12,0a6,6,0,1,0,-12,0zM234,144a6,6,0,1,0,12,0a6,6,0,1,0,-12,0zM257,18a6,6,0,1,0,12,0a6,6,0,1,0,-12,0zM279,173a6,6,0,1,0,12,0a6,6,0,1,0,-12,0zM300,354a6,6,0,1,0,12,0a6,6,0,1,0,-12,0zM321,288a6,6,0,1,0,12,0a6,6,0,1,0,-12,0zM341,92a6,6,0,1,0,12,0a6,6,0,1,0,-12,0zM361,44a6,6,0,1,0,12,0a6,6,0,1,0,-12,0zM381,183a6,6,0,1,0,12,0a6,6,0,1,0,-12,0zM400,307a6,6,0,1,0,12,0a6,6,0,1,0,-12,0zM419,274a6,6,0,1,0,12,0a6,6,0,1,0,-12,0zM437,158a6,6,0,1,0,12,0a6,6,0,1,0,-12,0zM456,109a6,6,0,1,0,12,0a6,6,0,1,0,-12,0zM474,157a6,6,0,1,0,12,0a6,6,0,1,0,-12,0zM492,213a6,6,0,1,0,12,0a6,6,0,1,0,-12,0zM509,216a6,6,0,1,0,12,0a6,6,0,1,0,-12,0zM527,193a6,6,0,1,0,12,0a6,6,0,1,0,-12,0z" style="stroke: #0000ff; fill: #0000ff;"></path>
    </g>
   </svg>
   <g>
    <g transform="translate(0,379)">
     <path d="M0,0h558M1,-7V0M17,-7V0M33,-14V0M50,-7V0M66,-7V0M82,-7V0M98,-7V0M114,-14V0M130,-7V0M146,-7V0M162,-7V0M178,-7V0M194,-14V0M211,-7V0M227,-7V0M243,-7V0M259,-7V0M275,-14V0M291,-7V0M307,-7V0M323,-7V0M339,-7V0M355,-14V0M372,-7V0M388,-7V0M404,-7V0M420,-7V0M436,-14V0M452,-7V0M468,-7V0M484,-7V0M500,-7V0M517,-14V0M533,-7V0M549,-7V0" style="stroke: black; stroke-width: 1;"></path>
     <g font-family="Arial" font-size="17" space="preserve" fill="black" text-anchor="middle">
      <text dy=".8em" transform="translate(33)">
       0
      </text>
      <text dy=".8em" transform="translate(114)">
       5
      </text>
      <text dy=".8em" transform="translate(194)">
       10
      </text>
      <text dy=".8em" transform="translate(275)">
       15
      </text>
      <text dy=".8em" transform="translate(355)">
       20
      </text>
      <text dy=".8em" transform="translate(436)">
       25
      </text>
      <text dy=".8em" transform="translate(517)">
       30
      </text>
     </g>
    </g>
    <g>
     <path d="M0,0v379M11,374H0M21,365H0M11,356H0M11,347H0M11,339H0M21,330H0M11,321H0M11,312H0M11,304H0M21,295H0M11,286H0M11,277H0M11,269H0M21,260H0M11,251H0M11,242H0M11,234H0M21,225H0M11,216H0M11,207H0M11,199H0M21,190H0M11,181H0M11,172H0M11,164H0M21,155H0M11,146H0M11,137H0M11,129H0M21,120H0M11,111H0M11,102H0M11,94H0M21,85H0M11,76H0M11,67H0M11,59H0M21,50H0M11,41H0M11,32H0M11,24H0M21,15H0M11,6H0" style="stroke: black; stroke-width: 1;"></path>
     <g font-family="Arial" font-size="17" space="preserve" fill="black" text-anchor="end">
      <text dy=".4em" transform="translate(-2,365)">
       -1
      </text>
      <text dy=".4em" transform="translate(-2,330)">
       -0.8
      </text>
      <text dy=".4em" transform="translate(-2,295)">
       -0.6
      </text>
      <text dy=".4em" transform="translate(-2,260)">
       -0.4
      </text>
      <text dy=".4em" transform="translate(-2,225)">
       -0.2
      </text>
      <text dy=".4em" transform="translate(-2,190)">
       0
      </text>
      <text dy=".4em" transform="translate(-2,155)">
       0.2
      </text>
      <text dy=".4em" transform="translate(-2,120)">
       0.4
      </text>
      <text dy=".4em" transform="translate(-2,85)">
       0.6
      </text>
      <text dy=".4em" transform="translate(-2,50)">
       0.8
      </text>
      <text dy=".4em" transform="translate(-2,15)">
       1
      </text>
     </g>
    </g>
   </g>
   <g>
    <g font-family="Arial" font-size="15" space="preserve" font-weight="bold">
     <text fill="black" text-anchor="start" dy=".4em" transform="translate(446,34)">
      23 knots
     </text>
    </g>
    <g font-family="Arial" font-size="15" space="preserve" font-weight="bold">
     <text fill="black" text-anchor="start" dy=".4em" transform="translate(223,-11)">
      quintic spline
     </text>
    </g>
    <g font-family="Arial" font-size="15" space="preserve" font-weight="bold">
     <text fill="black" text-anchor="start" dy=".4em" transform="translate(430,-11)">
      third spline
     </text>
    </g>
   </g>
  </g>
  <g transform="translate(257,2)" font-family="Arial" font-size="18" space="preserve">
   <text fill="black" text-anchor="middle" dy=".4em" transform="translate(92,14)">
    sin(x)*sin(x/10)
   </text>
  </g>
  <g>
   <path d="M237,40H282" style="stroke: #ff0000; stroke-width: 2;"></path>
  </g>
  <g>
   <path d="M444,40H489" style="stroke: #00ff00; stroke-width: 2;"></path>
  </g>
 </g>
</svg>

<svg xmlns="http://www.w3.org/2000/svg" viewBox="0 0 698 474" preserveAspectRatio="none" width="698" height="474">
 <path d="M0,0H698V474H0Z" style="fill: white;"></path>
 <g>
  <g transform="translate(70,47)">
   <path d="M0,0H558V379H0Z" style="fill: white; stroke: black; stroke-width: 1;"></path>
   <svg x="0" y="0" overflow="hidden" width="558" height="379" viewBox="0 0 558 379">
    <g>
     <path d="M3,159L9,163L14,170L20,178L25,185L31,189L36,189L42,185L48,178L53,170L59,163L64,159L70,160L76,167L81,180L87,199L92,220L98,241L103,258L109,269L115,270L120,261L126,240L131,211L137,176L143,139L148,106L154,80L159,67L165,68L170,84L176,115L182,157L187,205L193,254L198,297L204,329L209,345L215,342L221,321L226,283L232,233L237,176L243,119L249,70L254,35L260,18L265,22L271,45L276,87L282,141L288,201L293,259L299,309L304,345L310,362L315,358L321,334L327,293L332,241L338,183L343,128L349,82L355,49L360,34L366,39L371,61L377,97L382,143L388,192L394,239L399,277L405,303L410,314L416,310L422,291L427,262L433,227L438,191L444,157L449,131L455,115L461,109L466,114L472,127L477,146L483,168L488,188L494,205L500,216L505,221L511,220L516,215L522,207L528,199L533,193L539,190L544,191L550,197L555,204" style="fill: none; stroke: red; stroke-width: 2;"></path>
    </g>
    <g>
     <path d="M20.29,180.59C21.22,181.69,23.33,183.94,25.36,185.65S28.41,188.49,30.44,189.18S33.48,189.86,35.51,189.12S38.55,187.5,40.58,185.48S43.63,181.91,45.65,179.06S48.7,174.31,50.73,171.24S53.77,166.31,55.8,163.71S58.84,159.7,60.87,158.26S63.92,156.23,65.95,156.52S68.99,157.33,71.02,159.7S74.06,163.87,76.09,168.39S79.13,175.93,81.16,182.27S84.21,192.57,86.24,200.09S89.28,212.05,91.31,219.86S94.35,232.04,96.38,239.16S99.43,250,101.45,255.43S104.5,263.43,106.53,266.35S109.57,270.23,111.6,270.05S114.64,269,116.67,265.49S119.72,259.24,121.75,252.5S124.79,241.33,126.82,231.82S129.86,216.48,131.89,204.91S134.93,186.59,136.96,173.95S140.01,154.22,142.04,141.72S145.08,122.49,147.11,111.49S150.15,94.88,152.18,86.71S155.23,74.82,157.25,70.68S160.3,65.29,162.33,65.98S165.37,68.32,167.4,74.16S170.44,84.55,172.47,95.21S175.52,112.92,177.55,127.43S180.59,150.8,182.62,167.75S185.66,194.47,187.69,212.15S190.73,239.53,192.76,256.14S195.81,281.38,197.84,295.17S200.88,315.63,202.91,325.09S205.95,338.5,207.98,342.49S211.03,347.17,213.05,345.04S216.1,340.1,218.13,331.84S221.17,317.44,223.2,303.73S226.24,281.16,228.27,263.34S231.32,234.81,233.35,214.65S236.39,183.01,238.42,162.51S241.46,130.93,243.49,112.17S246.53,83.8,248.56,68.68S251.61,46.43,253.64,36.55S256.68,22.8,258.71,19.27S261.75,15.61,263.78,18.9S266.83,25.89,268.85,35.73S271.9,52.69,273.93,68.07S276.97,93.26,279,112.63S282.04,143.5,284.07,164.92S287.12,198.4,289.15,219.73S292.19,252.48,294.22,271.58S297.26,300.31,299.29,315.24S302.33,337,304.36,346.25S307.41,358.81,309.44,361.47S312.48,363.63,314.51,359.51S317.55,351.24,319.58,340.86S322.63,323.13,324.65,307.61S327.7,282.29,329.73,263.24S332.77,232.95,334.8,212.34S337.84,180.22,339.87,160.16S342.92,129.51,344.95,112.04S347.99,85.97,350.02,72.78S353.06,53.8,355.09,46.08S358.13,35.85,360.16,34.23S363.21,33.51,365.24,37.98S368.28,46.62,370.31,56.55S373.35,73.41,375.38,87.6S378.43,110.66,380.45,127.51S383.5,154.17,385.53,171.88S388.57,199.29,390.6,216.04S393.64,241.44,395.67,255.59S398.72,276.54,400.75,286.79S403.79,301.34,405.82,306.83S408.86,313.8,410.89,314.22S413.93,313.33,415.96,308.96S419.01,300.79,421.04,292.37S424.08,278.21,426.11,266.85S429.15,248.51,431.18,235.57S434.23,215.22,436.25,202.15S439.3,182.05,441.33,170.23S444.37,152.48,446.4,143.04S449.44,129.3,451.47,123.01S454.52,114.34,456.55,111.56S459.59,108.41,461.62,109.11S464.66,111.31,466.69,115.05S469.73,121.8,471.76,127.83S474.81,137.84,476.84,145.21S479.88,156.97,481.91,164.67S484.95,176.62,486.98,183.72S490.03,194.44,492.05,200.18S495.1,208.55,497.13,212.42S500.17,217.72,502.2,219.53S505.24,221.58,507.27,221.45S510.32,220.56,512.35,218.89S515.39,215.73,517.42,213.09S521.56,207.22,522.49,205.68" style="fill: none; stroke: #ff0000; stroke-width: 3;"></path>
    </g>
    <g>
     <path d="M20.29,177.64C20.96,179.42,23.33,183.55,25.36,185.65S28.41,188.02,30.44,188.18S33.48,187.74,35.51,186.45S38.55,183.96,40.58,181.71S43.63,177.91,45.65,175.2S48.7,170.84,50.73,168.17S53.77,163.98,55.8,161.85S58.84,158.59,60.87,157.48S63.92,155.88,65.95,156.3S68.99,157.12,71.02,159.56S74.06,163.72,76.09,168.49S79.13,176.65,81.16,183.38S84.21,194.37,86.24,202.18S89.28,214.52,91.31,222.42S94.35,234.65,96.38,241.66S99.43,252.31,101.45,257.44S104.5,265.04,106.53,267.34S109.57,270.09,111.6,268.95S114.64,266.07,116.67,261.65S119.72,253.96,121.75,246.84S124.79,235.26,126.82,226.06S129.86,211.51,131.89,200.83S134.93,184.2,136.96,172.67S140.01,154.75,142.04,143.16S145.08,125.25,147.11,114.7S150.15,98.67,152.18,90.42S155.23,78.16,157.25,73.48S160.3,66.87,162.33,67.01S165.37,68.32,167.4,74.15S170.44,85.09,172.47,96.19S175.52,114.81,177.55,129.61S180.59,153.38,182.62,170.2S185.66,196.57,187.69,213.73S190.73,240.11,192.76,255.97S195.81,279.82,197.84,293S200.88,312.51,202.91,321.87S205.95,335.38,207.98,339.82S211.03,345.65,213.05,344.07S216.1,340.1,218.13,331.89S221.17,317.01,223.2,302.99S226.24,279.75,228.27,261.78S231.32,233.1,233.35,213.14S236.39,181.98,238.42,161.99S241.46,131.4,243.49,113.17S246.53,85.74,248.56,70.82S251.61,48.73,253.64,38.58S256.68,24,258.71,20.07S261.75,15.6,263.78,18.91S266.83,26.47,268.85,36.63S271.9,54.27,273.93,69.74S276.97,94.91,279,113.98S282.04,144.15,284.07,165.12S287.12,197.79,289.15,218.82S292.19,251.14,294.22,270.25S297.26,299.2,299.29,314.39S302.33,336.88,304.36,346.2S307.41,358.6,309.44,360.96S312.48,362.3,314.51,357.97S317.55,349.48,319.58,339.31S322.63,322.25,324.65,307.1S327.7,282.44,329.73,263.57S332.77,233.41,334.8,212.75S337.84,180.46,339.87,160.3S342.92,129.34,344.95,111.93S347.99,86.13,350.02,73.23S353.06,54.97,355.09,47.42S358.13,37.29,360.16,35.46S363.21,34.06,365.24,38.27S368.28,46.59,370.31,56.53S373.35,73.66,375.38,87.95S378.43,111.18,380.45,127.99S383.5,154.52,385.53,172.02S388.57,198.98,390.6,215.52S393.64,240.58,395.67,254.73S398.72,275.86,400.75,286.28S403.79,301.32,405.82,306.83S408.86,313.53,410.89,313.8S413.93,312.56,415.96,308.18S419.01,300.16,421.04,291.92S424.08,278.17,426.11,266.95S429.15,248.77,431.18,235.84S434.23,215.43,436.25,202.3S439.3,182,441.33,170.2S444.37,152.6,446.4,143.29S449.44,129.91,451.47,123.66S454.52,114.95,456.55,112.04S459.59,108.51,461.62,109.12S464.66,111.32,466.69,115.1S469.73,121.98,471.76,128.03S474.81,138.05,476.84,145.36S479.88,156.94,481.91,164.54S484.95,176.27,486.98,183.35S490.03,194.1,492.05,199.92S495.1,208.53,497.13,212.41S500.17,217.61,502.2,219.35S505.24,221.23,507.27,221.11S510.32,220.3,512.35,218.71S515.39,215.76,517.42,213.2S521.57,207.42,522.49,205.9" style="fill: none; stroke: #00ff00; stroke-width: 3;"></path>
     <path d="M19,186a6,6,0,1,0,12,0a6,6,0,1,0,-12,0zM69,167a6,6,0,1,0,12,0a6,6,0,1,0,-12,0zM103,269a6,6,0,1,0,12,0a6,6,0,1,0,-12,0zM133,160a6,6,0,1,0,12,0a6,6,0,1,0,-12,0zM161,72a6,6,0,1,0,12,0a6,6,0,1,0,-12,0zM186,253a6,6,0,1,0,12,0a6,6,0,1,0,-12,0zM211,337a6,6,0,1,0,12,0a6,6,0,1,0,-12,0zM234,144a6,6,0,1,0,12,0a6,6,0,1,0,-12,0zM257,18a6,6,0,1,0,12,0a6,6,0,1,0,-12,0zM279,173a6,6,0,1,0,12,0a6,6,0,1,0,-12,0zM300,354a6,6,0,1,0,12,0a6,6,0,1,0,-12,0zM321,288a6,6,0,1,0,12,0a6,6,0,1,0,-12,0zM341,92a6,6,0,1,0,12,0a6,6,0,1,0,-12,0zM361,44a6,6,0,1,0,12,0a6,6,0,1,0,-12,0zM381,183a6,6,0,1,0,12,0a6,6,0,1,0,-12,0zM400,307a6,6,0,1,0,12,0a6,6,0,1,0,-12,0zM419,274a6,6,0,1,0,12,0a6,6,0,1,0,-12,0zM437,158a6,6,0,1,0,12,0a6,6,0,1,0,-12,0zM456,109a6,6,0,1,0,12,0a6,6,0,1,0,-12,0zM474,157a6,6,0,1,0,12,0a6,6,0,1,0,-12,0zM492,213a6,6,0,1,0,12,0a6,6,0,1,0,-12,0zM509,216a6,6,0,1,0,12,0a6,6,0,1,0,-12,0zM527,193a6,6,0,1,0,12,0a6,6,0,1,0,-12,0z" style="stroke: #0000ff; fill: #0000ff;"></path>
    </g>
   </svg>
   <g>
    <g transform="translate(0,379)">
     <path d="M0,0h558M1,-7V0M17,-7V0M33,-14V0M50,-7V0M66,-7V0M82,-7V0M98,-7V0M114,-14V0M130,-7V0M146,-7V0M162,-7V0M178,-7V0M194,-14V0M211,-7V0M227,-7V0M243,-7V0M259,-7V0M275,-14V0M291,-7V0M307,-7V0M323,-7V0M339,-7V0M355,-14V0M372,-7V0M388,-7V0M404,-7V0M420,-7V0M436,-14V0M452,-7V0M468,-7V0M484,-7V0M500,-7V0M517,-14V0M533,-7V0M549,-7V0" style="stroke: black; stroke-width: 1;"></path>
     <g font-family="Arial" font-size="17" space="preserve" fill="black" text-anchor="middle">
      <text dy=".8em" transform="translate(33)">
       0
      </text>
      <text dy=".8em" transform="translate(114)">
       5
      </text>
      <text dy=".8em" transform="translate(194)">
       10
      </text>
      <text dy=".8em" transform="translate(275)">
       15
      </text>
      <text dy=".8em" transform="translate(355)">
       20
      </text>
      <text dy=".8em" transform="translate(436)">
       25
      </text>
      <text dy=".8em" transform="translate(517)">
       30
      </text>
     </g>
    </g>
    <g>
     <path d="M0,0v379M11,374H0M21,365H0M11,356H0M11,347H0M11,339H0M21,330H0M11,321H0M11,312H0M11,304H0M21,295H0M11,286H0M11,277H0M11,269H0M21,260H0M11,251H0M11,242H0M11,234H0M21,225H0M11,216H0M11,207H0M11,199H0M21,190H0M11,181H0M11,172H0M11,164H0M21,155H0M11,146H0M11,137H0M11,129H0M21,120H0M11,111H0M11,102H0M11,94H0M21,85H0M11,76H0M11,67H0M11,59H0M21,50H0M11,41H0M11,32H0M11,24H0M21,15H0M11,6H0" style="stroke: black; stroke-width: 1;"></path>
     <g font-family="Arial" font-size="17" space="preserve" fill="black" text-anchor="end">
      <text dy=".4em" transform="translate(-2,365)">
       -1
      </text>
      <text dy=".4em" transform="translate(-2,330)">
       -0.8
      </text>
      <text dy=".4em" transform="translate(-2,295)">
       -0.6
      </text>
      <text dy=".4em" transform="translate(-2,260)">
       -0.4
      </text>
      <text dy=".4em" transform="translate(-2,225)">
       -0.2
      </text>
      <text dy=".4em" transform="translate(-2,190)">
       0
      </text>
      <text dy=".4em" transform="translate(-2,155)">
       0.2
      </text>
      <text dy=".4em" transform="translate(-2,120)">
       0.4
      </text>
      <text dy=".4em" transform="translate(-2,85)">
       0.6
      </text>
      <text dy=".4em" transform="translate(-2,50)">
       0.8
      </text>
      <text dy=".4em" transform="translate(-2,15)">
       1
      </text>
     </g>
    </g>
   </g>
   <g>
    <g font-family="Arial" font-size="15" space="preserve" font-weight="bold">
     <text fill="black" text-anchor="start" dy=".4em" transform="translate(446,34)">
      23 knots
     </text>
    </g>
    <g font-family="Arial" font-size="15" space="preserve" font-weight="bold">
     <text fill="black" text-anchor="start" dy=".4em" transform="translate(223,-11)">
      quintic spline
     </text>
    </g>
    <g font-family="Arial" font-size="15" space="preserve" font-weight="bold">
     <text fill="black" text-anchor="start" dy=".4em" transform="translate(430,-11)">
      third spline
     </text>
    </g>
   </g>
  </g>
  <g transform="translate(257,2)" font-family="Arial" font-size="18" space="preserve">
   <text fill="black" text-anchor="middle" dy=".4em" transform="translate(92,14)">
    sin(x)*sin(x/10)
   </text>
  </g>
  <g>
   <path d="M237,40H282" style="stroke: #ff0000; stroke-width: 2;"></path>
  </g>
  <g>
   <path d="M444,40H489" style="stroke: #00ff00; stroke-width: 2;"></path>
  </g>
 </g>
</svg>
